X:2
T: L\"andler FCBb chords (Anm)
M:3/4
L:1/8
K:F %%MIDI gchordon
CC |: "F"CF FA Ac | "Gm"f"_e"e "_d"dG"_b"B2 | "C7""_g"gf "_e"e"_g"Gc2 | "F"ag fAc2 | CF FA Ac | "Gm"fe dGB2 | "C7"gf eG ce |1 "F"f2z2CC :|2 "F"f2z2ag ||  [K:C] 
|:"G7"g2GB df | "C"eG ce gc' | "G7""_b"b2"_d"d"_g"g "_b"b"_d"d' | "C"c'e gc' b"_ ="a | "G7"g2G"_h"B "_d"d"_f"f | "C"eG ce gc' | "G7"b2dg bd' |1 "C"c'2z2ag :|2 "C"c'2z2c'_b ||  [K:F]
|: "F"ac fc ac | "C7""_b"b"_e"e "_g"g"_b"bc2 | "_b"bc "_e"ec "_g"gc | "F"ac fa "_ ="c'b | ac fc ac | "C7"be gbc2 | bc ec gc |1 "F"f2z2c'b :|2 "F"f2"_fine"z2f"_es"_e ||  [K:Bb] 
|: "Bb"df =ef gf | "Gm""_b"b"_d"d "_g"g"_b"b ag | "F7"Tf2A2A2 | Tf2A2A2 | "Bb""_?"B,"_(d"D "_f"FB "_d"d"_f"f | b"_d"d "_f"fb "_a"ag | "F7"Tf2A2"_ ="A2 |1 "Bb"B2z2f"_es"e :|2 "Bb"B2z2 dc || 
|: "C7"c2 =eg ce | "F"c2fa cf | "C7"c2 "_e"=e"_g"g "_b"b"_d"d' | "F"c'b ag f"_ ="=e | "Bb"df =ef gf | bd fb ag | "F7"f2A2A2 |1 "Bb"B2z2dc :|2 "Bb"B2z2z2 |] 

